papirus-arc-dark/64x64/places/folder-dropbox.svg

<?xml version="1.0" encoding="UTF-8" standalone="no"?>
<!-- Created with Inkscape (http://www.inkscape.org/) -->

<svg
   xmlns:dc="http://purl.org/dc/elements/1.1/"
   xmlns:cc="http://creativecommons.org/ns#"
   xmlns:rdf="http://www.w3.org/1999/02/22-rdf-syntax-ns#"
   xmlns:svg="http://www.w3.org/2000/svg"
   xmlns="http://www.w3.org/2000/svg"
   xmlns:sodipodi="http://sodipodi.sourceforge.net/DTD/sodipodi-0.dtd"
   xmlns:inkscape="http://www.inkscape.org/namespaces/inkscape"
   width="64"
   height="64"
   viewBox="0 0 64.000001 64.000001"
   id="svg2"
   version="1.1"
   inkscape:version="0.91 r13725"
   sodipodi:docname="folder-dropbox.svg">
  <defs
     id="defs4" />
  <sodipodi:namedview
     id="base"
     pagecolor="#1c1c1c"
     bordercolor="#666666"
     borderopacity="1.0"
     inkscape:pageopacity="0"
     inkscape:pageshadow="2"
     inkscape:zoom="3.53"
     inkscape:cx="31.001052"
     inkscape:cy="34.808708"
     inkscape:document-units="px"
     inkscape:current-layer="layer1"
     showgrid="false"
     units="px"
     inkscape:window-width="1600"
     inkscape:window-height="843"
     inkscape:window-x="0"
     inkscape:window-y="0"
     inkscape:window-maximized="1" />
  <metadata
     id="metadata7">
    <rdf:RDF>
      <cc:Work
         rdf:about="">
        <dc:format>image/svg+xml</dc:format>
        <dc:type
           rdf:resource="http://purl.org/dc/dcmitype/StillImage" />
        <dc:title></dc:title>
      </cc:Work>
    </rdf:RDF>
  </metadata>
  <g
     inkscape:label="Layer 1"
     inkscape:groupmode="layer"
     id="layer1"
     transform="translate(0,-988.36216)">
    <path
       id="path5171"
       d="m 6.99995,1035.8632 0,-34.988 c 0,-1.38454 1.1235,-2.65304 2.5,-2.50014 l 19.5,0 6,4.99924 19.628,0 c 0,0 2.3718,0 2.3718,2.4992 l 0,29.99 c 0,1.3845 -1.115,2.4992 -2.5,2.4992 l -44.999,0 c -1.385,0 -2.5,-1.1146 -2.5,-2.4992 z"
       inkscape:connector-curvature="0"
       style="fill:#5895dc" />
    <path
       id="path5041"
       d="m 33.67995,1003.2742 -3.68,4.088 -20.5,0 c -2.5,0 -2.5,2.396 -2.5,2.396 l 0,2 c 0,0 0,-2.396 2.5,-2.396 l 20.5,0 4.5,-5 0.48633,0 -1.3066,-1.0879 z m 22.355,1.5645 c 0.57756,0.4666 0.95676,1.2108 0.96289,2.0039 -0.0091,-1.0703 -0.45872,-1.6611 -0.96289,-2.0039 z"
       inkscape:connector-curvature="0"
       style="opacity:0.1" />
    <path
       id="path5173"
       d="m 56.99995,1040.8622 0,-35 c 0,-1.385 -1.1235,-2.653 -2.5,-2.5 l -20,0 -4.5,5 -20.5,0 c -2.5,0 -2.5,2.3959 -2.5,2.3959 l 0,30.104 c 0,1.385 1.115,2.5 2.5,2.5 l 45,0 c 1.385,0 2.5,-1.115 2.5,-2.5 z"
       inkscape:connector-curvature="0"
       style="fill:#6ba4e7" />
    <path
       style="opacity:0.1;fill:#ffffff"
       d="M 34.5 15 L 30 20 L 9.5 20 C 7 20 7 22.396484 7 22.396484 L 7 23.396484 C 7 23.396484 7 21 9.5 21 L 30 21 L 34.5 16 L 54.5 16 C 55.877 15.847 57 17.115 57 18.5 L 57 17.5 C 57 16.115 55.877 14.847 54.5 15 L 34.5 15 z "
       transform="translate(0,988.36216)"
       id="path5029" />
    <path
       style="opacity:0.3"
       d="M 7 51.5 L 7 52.5 C 7 53.885 8.115 55 9.5 55 L 54.5 55 C 55.885 55 57 53.885 57 52.5 L 57 51.5 C 57 52.885 55.885 54 54.5 54 L 9.5 54 C 8.115 54 7 52.885 7 51.5 z "
       transform="translate(0,988.36216)"
       id="path5034" />
    <path
       style="opacity:0.1;fill:#ffffff"
       d="M 9.5 10.013672 C 8.1235 9.8603719 7 11.128632 7 12.513672 L 7 13.513672 C 7 12.128572 8.1235 10.860372 9.5 11.013672 L 29 11.013672 L 35 16.011719 L 54.628906 16.011719 C 54.628906 16.011719 57 16.012519 57 18.511719 L 57 17.511719 C 57 15.012519 54.628906 15.011719 54.628906 15.011719 L 35 15.011719 L 29 10.013672 L 9.5 10.013672 z "
       transform="translate(0,988.36216)"
       id="path5024" />
    <g
       id="g11239"
       transform="translate(68.9916,987.86083)">
      <g
         id="g4405"
         transform="matrix(1.1667,0,0,1.1667,-32.325,-1176)"
         style="opacity:0.2">
        <path
           id="path4411"
           d="m 11.429,1041.8 -3.4286,2.1428 2.5714,1.7143 3.4286,-1.7143 z"
           inkscape:connector-curvature="0" />
        <path
           id="path4413"
           d="m 8,1043.9 -3.4286,-2.1 -2.5714,2.1 3.4286,1.7143 z"
           inkscape:connector-curvature="0" />
        <path
           id="path4415"
           transform="translate(0,1036.4)"
           d="M 8,8.4286 5.4286,10.143 4.5714,9.7143 l 0,2.5714 3.4286,1.714 3.4286,-1.7143 0,-2.5714 -0.85714,0.42857 z"
           inkscape:connector-curvature="0" />
        <path
           id="path4417"
           d="m 11.429,1041.8 -3.4286,-1.7143 2.5714,-1.7143 3.4286,1.7143 z"
           inkscape:connector-curvature="0" />
        <path
           id="path4419"
           d="M 8,1040.1 4.5714,1041.8 2,1040.1 5.4286,1038.3857 Z"
           inkscape:connector-curvature="0" />
      </g>
      <g
         id="layer1-5"
         transform="matrix(1.1667,0,0,1.1667,-32.325,-1177)"
         style="fill:#383c4a">
        <path
           id="path4418"
           d="m 11.429,1041.8 -3.4286,2.1428 2.5714,1.7143 3.4286,-1.7143 z"
           inkscape:connector-curvature="0" />
        <path
           id="path4416"
           d="m 8,1043.9 -3.4286,-2.1 -2.5714,2.1 3.4286,1.7143 z"
           inkscape:connector-curvature="0" />
        <path
           id="polygon4880"
           d="M 8,8.4286 5.4286,10.143 4.5714,9.7143 l 0,2.5714 3.4286,1.714 3.4286,-1.7143 0,-2.5714 -0.85714,0.42857 z"
           transform="translate(0,1036.4)"
           inkscape:connector-curvature="0" />
        <path
           id="path4418-3"
           d="m 11.429,1041.8 -3.4286,-1.7143 2.5714,-1.7143 3.4286,1.7143 z"
           inkscape:connector-curvature="0" />
        <path
           id="path4416-4"
           d="M 8,1040.1 4.5714,1041.8 2,1040.1 5.4286,1038.3857 Z"
           inkscape:connector-curvature="0" />
      </g>
    </g>
  </g>
</svg>

<?xml version="1.0" encoding="UTF-8" standalone="no"?>
<svg id="svg2" xmlns:rdf="http://www.w3.org/1999/02/22-rdf-syntax-ns#" xmlns="http://www.w3.org/2000/svg" viewBox="0 0 64.000001 64.000001" width="64" version="1.1" xmlns:cc="http://creativecommons.org/ns#" height="64" xmlns:dc="http://purl.org/dc/elements/1.1/">
 <metadata id="metadata7">
  <rdf:RDF>
   <cc:Work rdf:about="">
    <dc:format>image/svg+xml</dc:format>
    <dc:type rdf:resource="http://purl.org/dc/dcmitype/StillImage"/>
    <dc:title/>
   </cc:Work>
  </rdf:RDF>
 </metadata>
 <g id="layer1" transform="translate(0 -988.36)">
  <path id="path5171" fill="#5895dc" d="m7 1035.9v-34.988c0-1.3845 1.1235-2.653 2.5-2.5001h19.5l6 4.9992h19.628s2.3718 0 2.3718 2.4992v29.99c0 1.3845-1.115 2.4992-2.5 2.4992h-44.999c-1.385 0-2.5-1.1146-2.5-2.4992z"/>
  <path id="path5041" opacity=".1" d="m33.68 1003.3-3.68 4.088h-20.5c-2.5 0-2.5 2.396-2.5 2.396v2s0-2.396 2.5-2.396h20.5l4.5-5h0.48633l-1.3066-1.0879zm22.355 1.5645c0.57756 0.4666 0.95676 1.2108 0.96289 2.0039-0.0091-1.0703-0.45872-1.6611-0.96289-2.0039z"/>
  <path id="path5173" fill="#6ba4e7" d="m57 1040.9v-35c0-1.385-1.1235-2.653-2.5-2.5h-20l-4.5 5h-20.5c-2.5 0-2.5 2.3959-2.5 2.3959v30.104c0 1.385 1.115 2.5 2.5 2.5h45c1.385 0 2.5-1.115 2.5-2.5z"/>
  <path id="path5029" opacity=".1" d="m34.5 15l-4.5 5h-20.5c-2.5 0-2.5 2.396-2.5 2.396v1s0-2.396 2.5-2.396h20.5l4.5-5h20c1.377-0.153 2.5 1.115 2.5 2.5v-1c0-1.385-1.123-2.653-2.5-2.5h-20z" transform="translate(0 988.36)" fill="#fff"/>
  <path id="path5034" opacity=".2" d="m7 1040.9v1c0 1.385 1.115 2.5 2.5 2.5h45c1.385 0 2.5-1.115 2.5-2.5v-1c0 1.385-1.115 2.5-2.5 2.5h-45c-1.385 0-2.5-1.115-2.5-2.5z"/>
  <path id="path5024" opacity=".1" d="m9.5 10.014c-1.3765-0.1536-2.5 1.115-2.5 2.5v1c0-1.385 1.1235-2.654 2.5-2.5h19.5l6 4.998h19.629s2.371 0.001 2.371 2.5v-1c0-2.499-2.371-2.5-2.371-2.5h-19.629l-6-4.998h-19.5z" transform="translate(0 988.36)" fill="#fff"/>
  <g id="g11239" transform="translate(68.992 987.86)">
   <g id="g4405" opacity=".2" transform="matrix(1.1667,0,0,1.1667,-32.325,-1176)">
    <path id="path4411" d="m11.429 1041.8-3.4286 2.1428 2.5714 1.7143 3.4286-1.7143z"/>
    <path id="path4413" d="m8 1043.9-3.4286-2.1-2.5714 2.1 3.4286 1.7143z"/>
    <path id="path4415" d="m8 8.4286-2.5714 1.7144-0.8572-0.4287v2.5714l3.4286 1.714 3.4286-1.7143v-2.5714l-0.85714 0.42857z" transform="translate(0,1036.4)"/>
    <path id="path4417" d="m11.429 1041.8-3.4286-1.7143 2.5714-1.7143 3.4286 1.7143z"/>
    <path id="path4419" d="m8 1040.1-3.4286 1.7-2.5714-1.7 3.4286-1.7z"/>
   </g>
   <g id="layer1-5" fill="#383c4a" transform="matrix(1.1667,0,0,1.1667,-32.325,-1177)">
    <path id="path4418" d="m11.429 1041.8-3.4286 2.1428 2.5714 1.7143 3.4286-1.7143z"/>
    <path id="path4416" d="m8 1043.9-3.4286-2.1-2.5714 2.1 3.4286 1.7143z"/>
    <path id="polygon4880" transform="translate(0,1036.4)" d="m8 8.4286-2.5714 1.7144-0.8572-0.4287v2.5714l3.4286 1.714 3.4286-1.7143v-2.5714l-0.85714 0.42857z"/>
    <path id="path4418-3" d="m11.429 1041.8-3.4286-1.7143 2.5714-1.7143 3.4286 1.7143z"/>
    <path id="path4416-4" d="m8 1040.1-3.4286 1.7-2.5714-1.7 3.4286-1.7z"/>
   </g>
  </g>
 </g>
</svg>
